!!!SOCIAL_FUNCTION:	songs of games played in a ceremonial manner
!!!PDT:	1932
!!!OTL: No_17_In_Four_Days.krn
!!!REG: Wisconsin
!!!LANG: Non-Tone
!!!LING_GROUP: Algonquin
**kern
*staff1
=1-
*clefF4
*k[f#c#g#d#]
*M3/4
4r
8r
16r
16G#\
4G#\
=2
4.G#\
8E\
8E\
8r
=3||
*M5/8
8E\L
8D#\
8E\
8F#\
8E\J
=4||
*M2/4
4C#/
8BB/L
8AA#/J
=5
2BB/
=6
8.r
16E\
4E\
=7||
*M3/4
4.E\
8C#/
8C#/
8r
=8||
*M5/8
8C#/L
8C#/
8C#/
8E/
8C#/J
=9||
*M2/4
8.BB/L
16GG#/Jk
8GG#/L
8GG#/J
=10||
*M3/4
4GG#/
8.r
16BB/
4BB/
=11
4.BB/
8GG#/
4GG#/
=12||
*M5/8
8BB/L
8GG#/
8GG#/
8GG#/
8GG#/J
=13
4.GG#/
4r
==
*-
